remix/Logos/qq-line.svg

<svg viewBox="0 0 24 24" fill="currentColor" xmlns="http://www.w3.org/2000/svg"><path d="M17.5359 12.5144L16.8402 10.7175C16.8408 10.6968 16.8494 10.3429 16.8494 10.1604C16.8494 7.08792 15.448 4.0003 12.0012 4C8.55459 4.0003 7.15292 7.08792 7.15292 10.1604C7.15292 10.3429 7.16151 10.6968 7.16209 10.7175L6.4667 12.5144C6.27608 13.0285 6.08776 13.564 5.94988 14.0232C5.29262 16.2126 5.50559 17.1186 5.66783 17.139C6.01581 17.1823 7.02221 15.4908 7.02221 15.4908C7.02221 16.4704 7.5095 17.7487 8.56405 18.6719C8.16963 18.7976 7.68635 18.9911 7.37564 19.2284C7.09645 19.442 7.13142 19.6594 7.18158 19.7473C7.40258 20.1329 10.9713 19.9935 12.0017 19.8733C13.0319 19.9935 16.6009 20.1329 16.8216 19.7473C16.872 19.6594 16.9067 19.442 16.6275 19.2284C16.3168 18.9911 15.8333 18.7976 15.4386 18.6716C16.4928 17.7487 16.9801 16.4704 16.9801 15.4908C16.9801 15.4908 17.9868 17.1823 18.3348 17.139C18.4967 17.1186 18.7131 16.2108 18.0524 14.0232C17.9125 13.56 17.7265 13.0285 17.5359 12.5144ZM18.5574 20.7407C18.1843 21.3926 17.7237 21.6334 17.1187 21.7981C16.8792 21.8633 16.621 21.9056 16.325 21.936C15.8844 21.9814 15.3392 22.001 14.712 22C13.786 21.9985 12.693 21.9491 12.0017 21.884C11.3103 21.9491 10.2173 21.9985 9.29129 22C8.66414 22.001 8.11889 21.9814 7.67832 21.936C7.38236 21.9056 7.12409 21.8633 6.88467 21.7981C6.27994 21.6335 5.81954 21.393 5.44496 20.7393C5.15165 20.2258 5.07747 19.6406 5.20612 19.0866C4.61376 18.9546 4.20483 18.6045 3.92733 18.1757C3.77911 17.9466 3.68408 17.7127 3.61845 17.4663C3.53001 17.1344 3.49486 16.7666 3.50184 16.3601C3.51532 15.5749 3.68902 14.5984 4.03435 13.4481C4.17427 12.9821 4.3614 12.4396 4.6015 11.7926L5.15467 10.3632C5.1536 10.287 5.15292 10.2154 5.15292 10.1604C5.15292 5.6047 7.58875 2.00038 12.0013 2C16.4138 2.00038 18.8494 5.60454 18.8494 10.1604C18.8494 10.2154 18.8487 10.2869 18.8477 10.3631L19.401 11.7923L19.4112 11.8191C19.636 12.4254 19.8242 12.9722 19.967 13.445C20.3145 14.5956 20.4889 15.5735 20.5018 16.361C20.5085 16.768 20.4728 17.1365 20.3837 17.4689C20.3178 17.7148 20.2226 17.9483 20.0746 18.1768C19.7976 18.6041 19.3905 18.9532 18.7974 19.0862C18.9266 19.6411 18.8523 20.2274 18.5574 20.7407Z"/></svg>

<svg viewBox="0 0 24 24" xmlns="http://www.w3.org/2000/svg"><path fill="none" d="M0 0h24v24H0Z"/><path d="M17.535 12.514l-.7-1.8c0-.03.01-.375.01-.56 -.01-3.072-1.41-6.16-4.849-6.16 -3.45 0-4.848 3.088-4.848 6.16 0 .18 0 .53.01.55l-.7 1.79c-.19.51-.38 1.05-.52 1.51 -.657 2.18-.45 3.09-.29 3.115 .34.04 1.354-1.65 1.354-1.65 0 .98.48 2.25 1.54 3.18 -.4.12-.88.32-1.19.55 -.28.21-.25.43-.2.52 .22.38 3.79.24 4.82.125 1.03.12 4.59.26 4.82-.13 .05-.09.08-.31-.2-.52 -.32-.24-.8-.43-1.19-.56 1.05-.93 1.54-2.21 1.54-3.19 0 0 1 1.69 1.35 1.64 .16-.02.37-.93-.29-3.12 -.14-.47-.33-1-.52-1.51Zm1.02 8.227c-.38.65-.84.89-1.44 1.05 -.24.06-.5.1-.8.13 -.44.04-.99.06-1.62.06h-.001c-.91-.01-1.81-.05-2.71-.12 -.7.06-1.79.11-2.71.11h0c-.54 0-1.08-.02-1.62-.07V21.9c-.27-.03-.54-.08-.8-.14 -.61-.17-1.07-.41-1.44-1.06v0c-.29-.51-.38-1.1-.24-1.66 -.6-.14-1.01-.49-1.279-.92h0c-.15-.22-.25-.46-.31-.71h0c-.09-.37-.13-.74-.12-1.11 .01-.79.18-1.77.532-2.92 .14-.47.32-1.01.56-1.66l.55-1.43h0c-.01-.07-.01-.14-.01-.21 -.001-4.56 2.43-8.16 6.84-8.16 4.413 0 6.84 3.6 6.84 8.16l-.01.2 .55 1.43 .01.02c.22.6.41 1.15.55 1.62 .34 1.15.52 2.12.53 2.91 0 .4-.03.77-.12 1.1 -.07.24-.17.48-.31.7 -.28.42-.69.77-1.28.91 .13.55.05 1.14-.24 1.654Z"/></svg>
